X:32
T:Bourre de Saint Pierre
A:Bourbonnais
O:France
M:3/8
L:1/8
Q:1/4=110
K:C
f|e2d|c2d|e/2f/2ed|g2 f|eed|c2d|e/2f/2ed|
g3/2a/2g/2f/2|ed/2f/2B/2d/2|c2d|e/2f/2ed|
g2f|eed|c2d|e/2f/2ed|g2g|
|:abc'|g2f|d/2f/2ed|ecg|
abc'|g2f|d/2f/2ed|1c2g:|2c2f||
